front-end/public/assets/images/icons/monotone/workstation.svg

<svg id="Layer_1" enable-background="new 0 0 512 512" height="512" viewBox="0 0 512 512" width="512" xmlns="http://www.w3.org/2000/svg"><path d="m464 80h-256v-32c0-8.84-7.16-16-16-16h-176c-8.84 0-16 7.16-16 16v416c0 8.84 7.16 16 16 16h176c8.84 0 16-7.16 16-16v-16h208c8.84 0 16-7.16 16-16s-7.16-16-16-16h-50.88l-9.6-48h108.48c26.47 0 48-21.53 48-48v-192c0-26.47-21.53-48-48-48zm-384 296c0-13.23 10.77-24 24-24s24 10.77 24 24-10.77 24-24 24-24-10.77-24-24zm48-88h-48c-8.84 0-16-7.16-16-16s7.16-16 16-16h48c8.84 0 16 7.16 16 16s-7.16 16-16 16zm-96-64v-32h144v32zm144-112v32h-144v-32zm32 256h44.48l-9.6 48h-34.88zm0-64c0-19.333 0-166.877 0-192h256c8.82 0 16 7.18 16 16v176z"/></svg>

<?xml version="1.0" encoding="utf-8"?>
<!-- Generator: Adobe Illustrator 24.0.1, SVG Export Plug-In . SVG Version: 6.00 Build 0)  -->
<svg version="1.1" id="Layer_1" xmlns="http://www.w3.org/2000/svg" xmlns:xlink="http://www.w3.org/1999/xlink" x="0px" y="0px"
	 viewBox="0 0 512 512" style="enable-background:new 0 0 512 512;" xml:space="preserve">
<style type="text/css">
	.st0{fill:#FFFFFF;}
</style>
<path class="st0" d="M464,80H208V48c0-8.8-7.2-16-16-16H16C7.2,32,0,39.2,0,48v416c0,8.8,7.2,16,16,16h176c8.8,0,16-7.2,16-16v-16
	h208c8.8,0,16-7.2,16-16s-7.2-16-16-16h-50.9l-9.6-48H464c26.5,0,48-21.5,48-48V128C512,101.5,490.5,80,464,80z M80,376
	c0-13.2,10.8-24,24-24s24,10.8,24,24s-10.8,24-24,24S80,389.2,80,376z M128,288H80c-8.8,0-16-7.2-16-16s7.2-16,16-16h48
	c8.8,0,16,7.2,16,16S136.8,288,128,288z M32,224v-32h144v32H32z M176,112v32H32v-32H176z M208,368h44.5l-9.6,48H208L208,368z
	 M208,304c0-19.3,0-166.9,0-192h256c8.8,0,16,7.2,16,16v176H208z"/>
</svg>
